src/img/ic_github.svg

<svg height="32" viewBox="0 0 32 32" width="32" xmlns="http://www.w3.org/2000/svg"><path d="m0 0h32v32h-32z" fill="none"/><path d="m8.749-2.668c0-.121-.137-.206-.3-.19-.153 0-.274.084-.274.19 0 .121.121.206.3.19.152-.001.274-.085.274-.19zm-1.64-.237c-.037.105.069.227.227.258a.247.247 0 0 0 .327-.105c.032-.105-.069-.227-.227-.274a.271.271 0 0 0 -.327.12zm2.33-.095c-.153.037-.258.137-.243.258.016.105.153.174.311.137s.258-.137.243-.243-.158-.163-.311-.152zm3.47-20.2a12.645 12.645 0 0 0 -12.909 12.864 13.221 13.221 0 0 0 8.938 12.614c.675.121.912-.3.912-.638 0-.327-.016-2.13-.016-3.238 0 0-3.691.791-4.467-1.571 0 0-.6-1.535-1.466-1.93 0 0-1.208-.828.084-.812a2.784 2.784 0 0 1 2.037 1.36 2.788 2.788 0 0 0 3.844 1.1 2.931 2.931 0 0 1 .844-1.777c-2.948-.327-5.922-.754-5.922-5.827a4 4 0 0 1 1.245-3.106 4.982 4.982 0 0 1 .137-3.579c1.1-.343 3.639 1.424 3.639 1.424a12.391 12.391 0 0 1 3.312-.448 12.391 12.391 0 0 1 3.312.448s2.537-1.772 3.639-1.424a4.98 4.98 0 0 1 .137 3.581 4.1 4.1 0 0 1 1.361 3.106c0 5.089-3.106 5.495-6.054 5.827a3.118 3.118 0 0 1 .9 2.447c-.005 1.779-.016 3.979-.016 4.409 0 .343.243.759.912.638a13.1 13.1 0 0 0 8.849-12.6 12.93 12.93 0 0 0 -13.252-12.868zm-7.783 18.185c-.069.053-.053.174.037.274.084.084.206.121.274.053.069-.053.053-.174-.037-.274-.084-.085-.206-.122-.274-.053zm-.57-.427c-.037.069.016.153.121.206a.157.157 0 0 0 .223-.037c.037-.069-.016-.153-.121-.206-.101-.032-.186-.016-.223.037zm1.709 1.877c-.084.069-.053.227.069.327.121.121.274.137.343.053.069-.069.037-.227-.069-.327-.116-.121-.275-.137-.343-.053zm-.6-.775c-.084.053-.084.19 0 .311s.227.174.3.121a.241.241 0 0 0 0-.327c-.08-.121-.217-.174-.301-.105z" fill="#91929e" transform="translate(3 26.203)"/></svg>

<svg xmlns="http://www.w3.org/2000/svg" width="32" height="32" viewBox="0 0 32 32">
  <g id="ic_github" transform="translate(-942 -2956.297)">
    <rect id="bg" width="32" height="32" transform="translate(942 2956.297)" fill="none"/>
    <path id="ic_github-2" data-name="ic_github" d="M8.749-2.668c0-.121-.137-.206-.3-.19-.153,0-.274.084-.274.19,0,.121.121.206.3.19C8.627-2.479,8.749-2.563,8.749-2.668Zm-1.64-.237c-.037.105.069.227.227.258a.247.247,0,0,0,.327-.105c.032-.105-.069-.227-.227-.274A.271.271,0,0,0,7.109-2.906ZM9.439-3c-.153.037-.258.137-.243.258.016.105.153.174.311.137s.258-.137.243-.243S9.592-3.011,9.439-3ZM12.909-23.2A12.645,12.645,0,0,0,0-10.336,13.221,13.221,0,0,0,8.938,2.278c.675.121.912-.3.912-.638,0-.327-.016-2.13-.016-3.238,0,0-3.691.791-4.467-1.571,0,0-.6-1.535-1.466-1.93,0,0-1.208-.828.084-.812A2.784,2.784,0,0,1,6.022-4.551a2.788,2.788,0,0,0,3.844,1.1,2.931,2.931,0,0,1,.844-1.777c-2.948-.327-5.922-.754-5.922-5.827a4,4,0,0,1,1.245-3.106A4.982,4.982,0,0,1,6.17-17.74c1.1-.343,3.639,1.424,3.639,1.424a12.391,12.391,0,0,1,3.312-.448,12.391,12.391,0,0,1,3.312.448s2.537-1.772,3.639-1.424a4.98,4.98,0,0,1,.137,3.581,4.1,4.1,0,0,1,1.361,3.106c0,5.089-3.106,5.495-6.054,5.827a3.118,3.118,0,0,1,.9,2.447C16.411-1,16.4,1.2,16.4,1.63c0,.343.243.759.912.638a13.1,13.1,0,0,0,8.849-12.6A12.93,12.93,0,0,0,12.909-23.2ZM5.126-5.015c-.069.053-.053.174.037.274.084.084.206.121.274.053.069-.053.053-.174-.037-.274C5.316-5.047,5.194-5.084,5.126-5.015Zm-.57-.427c-.037.069.016.153.121.206A.157.157,0,0,0,4.9-5.273c.037-.069-.016-.153-.121-.206C4.678-5.511,4.593-5.495,4.556-5.442ZM6.265-3.565c-.084.069-.053.227.069.327.121.121.274.137.343.053.069-.069.037-.227-.069-.327C6.492-3.633,6.333-3.649,6.265-3.565Zm-.6-.775c-.084.053-.084.19,0,.311s.227.174.3.121a.241.241,0,0,0,0-.327C5.885-4.356,5.748-4.409,5.664-4.34Z" transform="translate(945 2982.5)" fill="#91929e"/>
  </g>
</svg>
